svg/color/aloha.svg

<?xml version="1.0" encoding="UTF-8" ?>
<!DOCTYPE svg PUBLIC "-//W3C//DTD SVG 1.1//EN" "http://www.w3.org/Graphics/SVG/1.1/DTD/svg11.dtd">
<svg width="242pt" height="250pt" viewBox="0 0 242 250" version="1.1" xmlns="http://www.w3.org/2000/svg">
<g id="#ffffffff">
<path fill="#ffffff" opacity="1.00" d=" M 0.00 0.00 L 242.00 0.00 L 242.00 96.90 C 240.17 74.95 231.02 53.25 214.97 37.93 C 201.98 25.65 187.07 15.18 170.42 8.52 C 143.54 -2.07 112.97 -2.73 85.59 6.45 C 58.90 15.28 35.43 33.42 20.16 57.02 C 7.86 75.79 0.95 97.95 0.00 120.34 L 0.00 0.00 Z" />
<path fill="#ffffff" opacity="1.00" d=" M 73.61 44.34 C 93.30 37.04 115.91 37.24 135.14 45.88 C 144.58 50.09 153.23 56.16 160.10 63.91 C 167.72 71.23 173.55 80.65 175.54 91.11 C 178.21 103.72 175.03 117.67 166.35 127.34 C 158.83 135.82 147.21 140.03 136.00 139.33 C 122.82 138.51 110.48 132.72 99.76 125.28 C 96.61 123.04 93.01 121.06 89.02 121.23 C 84.35 120.96 80.00 123.94 77.88 127.99 C 74.17 134.91 73.24 143.73 76.92 150.86 C 80.78 158.64 88.70 163.46 96.70 166.11 C 105.82 168.93 115.37 170.14 124.88 170.75 C 138.37 171.87 151.94 171.34 165.39 169.98 C 181.24 168.12 197.35 165.09 211.55 157.48 C 230.51 146.82 241.51 125.09 242.00 103.70 L 242.00 250.00 L 132.22 250.00 C 153.16 248.48 173.86 242.27 191.63 230.98 C 169.39 238.57 145.59 242.56 122.11 239.74 C 95.34 236.82 69.23 225.12 50.48 205.58 C 30.10 184.94 19.30 155.84 19.43 127.00 C 19.09 110.27 23.31 93.39 32.00 79.05 C 41.48 63.28 56.31 50.70 73.61 44.34 M 79.88 66.94 C 65.31 72.30 53.52 83.98 46.97 97.94 C 39.93 112.81 38.44 129.77 39.95 145.98 C 41.95 166.29 51.64 185.58 66.47 199.54 C 85.87 218.07 111.95 230.32 139.01 230.60 C 161.74 231.13 183.90 224.06 204.24 214.42 C 185.79 216.42 167.71 221.78 149.04 221.84 C 112.93 223.03 77.59 199.00 65.40 164.99 C 60.60 151.59 59.69 136.67 63.45 122.91 C 66.39 112.14 74.15 102.59 84.58 98.35 C 90.13 96.11 96.50 97.37 101.39 100.59 C 109.59 105.57 116.17 113.62 125.90 115.78 C 139.84 119.64 153.88 103.38 148.62 90.09 C 145.00 80.89 137.03 73.98 128.31 69.70 C 113.37 62.57 95.48 61.04 79.88 66.94 Z" />
<path fill="#ffffff" opacity="1.00" d=" M 0.00 129.63 C 1.22 163.19 16.55 195.96 41.75 218.19 C 62.73 237.16 90.32 248.25 118.49 250.00 L 0.00 250.00 L 0.00 129.63 Z" />
</g>
<g id="#e41571ff">
<path fill="#e41571" opacity="1.00" d=" M 85.59 6.45 C 112.97 -2.73 143.54 -2.07 170.42 8.52 C 187.07 15.18 201.98 25.65 214.97 37.93 C 231.02 53.25 240.17 74.95 242.00 96.90 L 242.00 103.70 C 241.51 125.09 230.51 146.82 211.55 157.48 C 197.35 165.09 181.24 168.12 165.39 169.98 C 151.94 171.34 138.37 171.87 124.88 170.75 C 115.37 170.14 105.82 168.93 96.70 166.11 C 88.70 163.46 80.78 158.64 76.92 150.86 C 73.24 143.73 74.17 134.91 77.88 127.99 C 80.00 123.94 84.35 120.96 89.02 121.23 C 93.01 121.06 96.61 123.04 99.76 125.28 C 110.48 132.72 122.82 138.51 136.00 139.33 C 147.21 140.03 158.83 135.82 166.35 127.34 C 175.03 117.67 178.21 103.72 175.54 91.11 C 173.55 80.65 167.72 71.23 160.10 63.91 C 153.23 56.16 144.58 50.09 135.14 45.88 C 115.91 37.24 93.30 37.04 73.61 44.34 C 56.31 50.70 41.48 63.28 32.00 79.05 C 23.31 93.39 19.09 110.27 19.43 127.00 C 19.30 155.84 30.10 184.94 50.48 205.58 C 69.23 225.12 95.34 236.82 122.11 239.74 C 145.59 242.56 169.39 238.57 191.63 230.98 C 173.86 242.27 153.16 248.48 132.22 250.00 L 118.49 250.00 C 90.32 248.25 62.73 237.16 41.75 218.19 C 16.55 195.96 1.22 163.19 0.00 129.63 L 0.00 120.34 C 0.95 97.95 7.86 75.79 20.16 57.02 C 35.43 33.42 58.90 15.28 85.59 6.45 Z" />
<path fill="#e41571" opacity="1.00" d=" M 79.88 66.94 C 95.48 61.04 113.37 62.57 128.31 69.70 C 137.03 73.98 145.00 80.89 148.62 90.09 C 153.88 103.38 139.84 119.64 125.90 115.78 C 116.17 113.62 109.59 105.57 101.39 100.59 C 96.50 97.37 90.13 96.11 84.58 98.35 C 74.15 102.59 66.39 112.14 63.45 122.91 C 59.69 136.67 60.60 151.59 65.40 164.99 C 77.59 199.00 112.93 223.03 149.04 221.84 C 167.71 221.78 185.79 216.42 204.24 214.42 C 183.90 224.06 161.74 231.13 139.01 230.60 C 111.95 230.32 85.87 218.07 66.47 199.54 C 51.64 185.58 41.95 166.29 39.95 145.98 C 38.44 129.77 39.93 112.81 46.97 97.94 C 53.52 83.98 65.31 72.30 79.88 66.94 Z" />
</g>
</svg>

<?xml version="1.0" encoding="utf-8"?>
<!-- Generator: Adobe Illustrator 26.0.3, SVG Export Plug-In . SVG Version: 6.00 Build 0)  -->
<svg version="1.1" id="Layer_1" xmlns="http://www.w3.org/2000/svg" xmlns:xlink="http://www.w3.org/1999/xlink" x="0px" y="0px"
	 viewBox="0 0 242 250" style="enable-background:new 0 0 242 250;" xml:space="preserve">
<style type="text/css">
	.st0{fill:#E41571;}
</style>
<g id="_x23_e41571ff">
	<path class="st0" d="M85.6,6.4c27.4-9.2,57.9-8.5,84.8,2.1c16.7,6.7,31.6,17.1,44.6,29.4c16.1,15.3,25.2,37,27,59v6.8
		c-0.5,21.4-11.5,43.1-30.4,53.8c-14.2,7.6-30.3,10.6-46.2,12.5c-13.4,1.4-27,1.9-40.5,0.8c-9.5-0.6-19.1-1.8-28.2-4.6
		c-8-2.6-15.9-7.5-19.8-15.2c-3.7-7.1-2.8-15.9,1-22.9c2.1-4,6.5-7,11.1-6.8c4-0.2,7.6,1.8,10.7,4c10.7,7.4,23.1,13.2,36.2,14.1
		c11.2,0.7,22.8-3.5,30.4-12c8.7-9.7,11.9-23.6,9.2-36.2c-2-10.5-7.8-19.9-15.4-27.2c-6.9-7.8-15.5-13.8-25-18
		c-19.2-8.6-41.8-8.8-61.5-1.5C56.3,50.7,41.5,63.3,32,79.1c-8.7,14.3-12.9,31.2-12.6,47.9c-0.1,28.8,10.7,57.9,31,78.6
		c18.8,19.5,44.9,31.2,71.6,34.2c23.5,2.8,47.3-1.2,69.5-8.8c-17.8,11.3-38.5,17.5-59.4,19h-13.7c-28.2-1.8-55.8-12.8-76.7-31.8
		C16.5,196,1.2,163.2,0,129.6v-9.3C0.9,97.9,7.9,75.8,20.2,57C35.4,33.4,58.9,15.3,85.6,6.4z"/>
	<path class="st0" d="M79.9,66.9c15.6-5.9,33.5-4.4,48.4,2.8C137,74,145,80.9,148.6,90.1c5.3,13.3-8.8,29.6-22.7,25.7
		c-9.7-2.2-16.3-10.2-24.5-15.2c-4.9-3.2-11.3-4.5-16.8-2.2c-10.4,4.2-18.2,13.8-21.1,24.6c-3.8,13.8-2.9,28.7,2,42.1
		c12.2,34,47.5,58,83.6,56.8c18.7-0.1,36.8-5.4,55.2-7.4c-20.3,9.6-42.5,16.7-65.2,16.2c-27.1-0.3-53.1-12.5-72.5-31.1
		C51.6,185.6,42,166.3,40,146c-1.5-16.2,0-33.2,7-48C53.5,84,65.3,72.3,79.9,66.9z"/>
</g>
</svg>
